!!!COM: Zinnen, Jean-Antoine
!!!CDT: 1827-1898
!!!OTL: National Anthem, Luxembourg - Ons Hemecht (Our Motherland)
!!!ENC: Davis, Matthew J.
!!Vocal Line Only
**kern
*clefG2
*k[b-e-a-]
*E-:
*M4/4
=1-
4b-
=2
4.b-
8ee-
4ee-
4g
=3
4b-
4a-
4.a-
8a-
=4
4a-
8b-
8cc
4.b-
8a-
=5
2g
4r
4b-
=6
4.b-
8ee-
4.ee-
8dd
=7
4dd
4cc
4.ff
8ee-
=8
4dd
4b-
4.dd
8cc
=9
[2b-
4b-]
4f
=10
4.f
8g
4a-
4b-
=11
4cc
4cc
4.b-
8a-
=12
4g
4b-
4b-
4ee-
=13
2.dd
4b-
=14
4b-
8cc
8dd
4ee-
4ff
=15
4.gg
8ff
4ee-
4cc
=16
4.b-
8g
4b-
4a-
=17
[2g
4g]
4b-
=18
4b-
8cc
8dd
4ee-
4ff
=19
4.gg
8ff
4ee-
4cc
=20
4.b-
8ee-
4dd
4ff
=21
[2ee-
4ee-]
==|!
*-
